Newaita-dark/apps/64/diaspora.svg

<svg height="64pt" viewBox="0 0 64 64" width="64pt" xmlns="http://www.w3.org/2000/svg" xmlns:xlink="http://www.w3.org/1999/xlink"><linearGradient id="a"><stop offset="0" stop-opacity=".313726"/><stop offset=".222222" stop-opacity=".27451"/><stop offset="1" stop-opacity="0"/></linearGradient><radialGradient id="b" cx="450.908936" cy="189.579361" gradientTransform="matrix(.00000035 -.156265 -.281277 -.0000002 89.046304 127.190659)" gradientUnits="userSpaceOnUse" r="21.166656" xlink:href="#a"/><radialGradient id="c" cx="450.908936" cy="189.579361" gradientTransform="matrix(-.00000035 .156265 .281277 .0000002 -25.540237 -15.054964)" gradientUnits="userSpaceOnUse" r="21.166656" xlink:href="#a"/><radialGradient id="d" cx="450.908936" cy="189.579361" gradientTransform="matrix(-.00000035 -.156265 .281277 -.0000002 -25.540237 127.190659)" gradientUnits="userSpaceOnUse" r="21.166656" xlink:href="#a"/><radialGradient id="e" cx="450.908936" cy="189.579361" gradientTransform="matrix(.00000035 .156265 -.281277 .0000002 89.0463 -15.054965)" gradientUnits="userSpaceOnUse" r="21.166656" xlink:href="#a"/><linearGradient id="f" gradientTransform="matrix(.0267201 0 0 .125012 24.930772 26.877567)" gradientUnits="userSpaceOnUse" x1="255.323059" x2="255.323044" y1="233.5" y2="254.666656"><stop offset="0" stop-opacity=".27451"/><stop offset="1" stop-opacity="0"/></linearGradient><linearGradient id="g" gradientUnits="userSpaceOnUse" x1="254" x2="254" y1="-168.666672" y2="233.5"><stop offset="0" stop-color="#616161"/><stop offset="1" stop-color="#424242"/></linearGradient><linearGradient id="h" gradientUnits="userSpaceOnUse" x1="31.753056" x2="31.753056" y1="56.06789790428" y2="5.792224912"><stop offset="0" stop-color="#bdbdbd"/><stop offset="1" stop-color="#e0e0e0"/></linearGradient><path d="m36.382812 56.066406h5.292969v-2.644531h-5.292969zm0 0" fill="url(#b)"/><path d="m27.121094 56.066406h-5.289063v2.648438h5.289063zm0 0" fill="url(#c)"/><path d="m27.121094 56.066406h-5.289063v-2.644531h5.289063zm0 0" fill="url(#d)"/><path d="m36.382812 56.066406h5.292969v2.648438h-5.292969zm0 0" fill="url(#e)"/><path d="m27.121094 55.40625h9.261718v3.308594h-9.261718zm0 0" fill="url(#f)"/><path d="m254.006994-168.660675c111.051895 0 201.074548 90.022653 201.074548 201.074548s-90.022653 201.074548-201.074548 201.074548c-111.051896 0-201.105796-90.022653-201.105796-201.074548s90.0539-201.074548 201.105796-201.074548zm0 0" fill="url(#g)" stroke="#333" stroke-linecap="round" stroke-width="3" transform="matrix(.125012 0 0 .125012 0 26.877566)"/><path d="m31.753906 56.066406c-13.925781 0-25.140625-11.210937-25.140625-25.136718 0-.082032.003907-.164063.003907-.246094.128906 13.8125 11.292968 24.890625 25.136718 24.890625s25.003906-11.078125 25.136719-24.890625v.246094c0 13.925781-11.210937 25.136718-25.136719 25.136718zm0 0" fill-opacity=".196078"/><path d="m31.753906 5.792969c-13.925781 0-25.140625 11.210937-25.140625 25.136719 0 .082031.003907.164062.003907.246093.128906-13.8125 11.292968-24.890625 25.136718-24.890625s25.003906 11.078125 25.136719 24.890625c0-.082031 0-.164062 0-.246093 0-13.925782-11.210937-25.136719-25.136719-25.136719zm0 0" fill="#fff" fill-opacity=".392157"/><path d="m31.753906 5.605469c-14.027344 0-25.328125 11.296875-25.328125 25.324219 0 14.027343 11.300781 25.324218 25.328125 25.324218s25.324219-11.296875 25.324219-25.324218c0-14.027344-11.296875-25.324219-25.324219-25.324219zm0 .375c13.824219 0 24.949219 11.125 24.949219 24.949219 0 13.824218-11.125 24.949218-24.949219 24.949218-13.828125 0-24.953125-11.125-24.953125-24.949218 0-13.824219 11.125-24.949219 24.953125-24.949219zm0 0" fill="#212121"/><path d="m30.429688 15.054688c-.734376 0-1.324219.589843-1.324219 1.320312v10.804688l-9.992188-3.5625c-.691406-.246094-1.445312.113281-1.691406.800781l-.886719 2.492187c-.246094.691406.109375 1.445313.800782 1.691406l10.164062 3.621094-6.738281 8.582032c-.453125.578124-.351563 1.40625.222656 1.859374l2.082031 1.632813c.578125.453125 1.40625.351563 1.859375-.222656l6.878907-8.761719 6.875 8.761719c.453124.574219 1.28125.675781 1.859374.222656l2.082032-1.632813c.574218-.453124.675781-1.28125.222656-1.859374l-6.738281-8.582032 10.277343-3.660156c.691407-.246094 1.046876-1 .800782-1.691406l-.886719-2.492188c-.246094-.691406-1-1.046875-1.691406-.804687l-10.207031 3.640625v-10.839844c0-.730469-.589844-1.320312-1.324219-1.320312zm0 0" fill="url(#h)"/><path d="m30.429688 15.054688c-.734376 0-1.324219.589843-1.324219 1.320312v.992188c0-.730469.589843-1.320313 1.324219-1.320313h2.644531c.734375 0 1.324219.589844 1.324219 1.320313v-.992188c0-.730469-.589844-1.320312-1.324219-1.320312zm14.632812 8.445312c-.148438-.003906-.304688.023438-.457031.074219l-10.207031 3.640625v.992187l10.207031-3.636719c.152343-.054687.308593-.082031.457031-.078124.539062.003906 1.042969.339843 1.234375.878906l.871094 2.4375c.117187-.289063.132812-.621094.015625-.9375l-.886719-2.492188c-.191406-.539062-.695313-.875-1.234375-.878906zm-26.40625.039062c-.539062.003907-1.042969.339844-1.234375.878907l-.886719 2.492187c-.113281.320313-.097656.652344.019532.941406l.867187-2.441406c.191406-.539062.695313-.875 1.234375-.878906.152344 0 .304688.023438.457031.078125l9.992188 3.5625v-.992187l-9.992188-3.5625c-.152343-.054688-.304687-.078126-.457031-.078126zm18.261719 9.71875-.8125.289063.609375.773437.203125-.070312 5.925781 7.546875c.078125.101563.140625.207031.1875.320313.171875-.421876.117188-.925782-.1875-1.3125zm-10.230469 0-5.925781 7.546876c-.304688.386718-.359375.890624-.183594 1.3125.042969-.113282.105469-.21875.183594-.320313l5.925781-7.546875.203125.070312.609375-.773437zm0 0" fill="#fff"/><path d="m47.097656 27.984375c-.148437.273437-.394531.492187-.714844.605469l-10.277343 3.664062.8125 1.03125 9.464843-3.371094c.691407-.246093 1.046876-1 .800782-1.691406zm-30.476562.039063-.085938.242187c-.246094.691406.109375 1.445313.800782 1.691406l9.351562 3.332031.8125-1.035156-10.164062-3.621094c-.316407-.113281-.566407-.335937-.714844-.609374zm15.183594 7.320312-6.878907 8.757812c-.453125.578126-1.28125.675782-1.859375.226563l-2.082031-1.636719c-.136719-.105468-.246094-.234375-.328125-.378906-.324219.5625-.195312 1.289062.328125 1.703125l2.082031 1.632813c.578125.453124 1.40625.355468 1.859375-.222657l6.878907-8.757812 6.875 8.757812c.453124.578125 1.28125.675781 1.859374.222657l2.082032-1.632813c.523437-.414063.652344-1.140625.328125-1.703125-.082031.144531-.191407.273438-.328125.378906l-2.082032 1.636719c-.578124.449219-1.40625.351563-1.859374-.226563zm0 0" fill-opacity=".235294"/><path d="m919.990934 455.153409c-22.202606 0-40.035549 17.832944-40.035549 39.91745v326.661736l-302.097152-107.706255c-20.903516-7.440235-43.696616 3.42487-51.136851 24.210287l-26.808465 75.34714c-7.440235 20.903516 3.306771 43.696617 24.210288 51.136851l307.293505 109.477741-203.720713 259.463425c-13.69948 17.478646-10.628907 42.515627 6.731641 56.215107l62.946748 49.365367c17.478646 13.69948 42.515627 10.628907 56.215107-6.731641l207.972276-264.895978 207.854178 264.895978c13.69948 17.360548 38.73646 20.431121 56.215107 6.731641l62.946748-49.365367c17.360548-13.69948 20.431121-38.736461 6.731641-56.215107l-203.720714-259.463425 310.718376-110.65873c20.903517-7.440235 31.650522-30.233335 24.210288-51.136852l-26.808465-75.347139c-7.440235-20.903517-30.233335-31.650523-51.136852-24.328387l-308.592594 110.068235v-327.724627c0-22.084506-17.832944-39.91745-40.035549-39.91745zm0 0" fill="none" stroke="#212121" stroke-linecap="round" stroke-linejoin="round" stroke-width="11.338583" transform="scale(.0330761)"/></svg>

<?xml version="1.0" encoding="UTF-8"?>
<svg xmlns="http://www.w3.org/2000/svg" xmlns:xlink="http://www.w3.org/1999/xlink" width="64pt" height="64pt" viewBox="0 0 64 64" version="1.1">
<defs>
<radialGradient id="radial0" gradientUnits="userSpaceOnUse" cx="450.908936" cy="189.579361" fx="450.908936" fy="189.579361" r="21.166656" gradientTransform="matrix(0.000000348341,-0.156265,-0.281277,-0.000000203077,89.046304,127.190659)">
<stop offset="0" style="stop-color:rgb(0%,0%,0%);stop-opacity:0.313726;"/>
<stop offset="0.222222" style="stop-color:rgb(0%,0%,0%);stop-opacity:0.27451;"/>
<stop offset="1" style="stop-color:rgb(0%,0%,0%);stop-opacity:0;"/>
</radialGradient>
<radialGradient id="radial1" gradientUnits="userSpaceOnUse" cx="450.908936" cy="189.579361" fx="450.908936" fy="189.579361" r="21.166656" gradientTransform="matrix(-0.000000348341,0.156265,0.281277,0.000000203077,-25.540237,-15.054964)">
<stop offset="0" style="stop-color:rgb(0%,0%,0%);stop-opacity:0.313726;"/>
<stop offset="0.222222" style="stop-color:rgb(0%,0%,0%);stop-opacity:0.27451;"/>
<stop offset="1" style="stop-color:rgb(0%,0%,0%);stop-opacity:0;"/>
</radialGradient>
<radialGradient id="radial2" gradientUnits="userSpaceOnUse" cx="450.908936" cy="189.579361" fx="450.908936" fy="189.579361" r="21.166656" gradientTransform="matrix(-0.000000348341,-0.156265,0.281277,-0.000000203077,-25.540237,127.190659)">
<stop offset="0" style="stop-color:rgb(0%,0%,0%);stop-opacity:0.313726;"/>
<stop offset="0.222222" style="stop-color:rgb(0%,0%,0%);stop-opacity:0.27451;"/>
<stop offset="1" style="stop-color:rgb(0%,0%,0%);stop-opacity:0;"/>
</radialGradient>
<radialGradient id="radial3" gradientUnits="userSpaceOnUse" cx="450.908936" cy="189.579361" fx="450.908936" fy="189.579361" r="21.166656" gradientTransform="matrix(0.000000348341,0.156265,-0.281277,0.000000203077,89.0463,-15.054965)">
<stop offset="0" style="stop-color:rgb(0%,0%,0%);stop-opacity:0.313726;"/>
<stop offset="0.222222" style="stop-color:rgb(0%,0%,0%);stop-opacity:0.27451;"/>
<stop offset="1" style="stop-color:rgb(0%,0%,0%);stop-opacity:0;"/>
</radialGradient>
<linearGradient id="linear0" gradientUnits="userSpaceOnUse" x1="255.323059" y1="233.5" x2="255.323044" y2="254.666656" gradientTransform="matrix(0.0267201,0,0,0.125012,24.930772,26.877567)">
<stop offset="0" style="stop-color:rgb(0%,0%,0%);stop-opacity:0.27451;"/>
<stop offset="1" style="stop-color:rgb(0%,0%,0%);stop-opacity:0;"/>
</linearGradient>
<linearGradient id="linear1" gradientUnits="userSpaceOnUse" x1="254" y1="-168.666672" x2="254" y2="233.5" >
<stop offset="0" style="stop-color:rgb(38.039216%,38.039216%,38.039216%);stop-opacity:1;"/>
<stop offset="1" style="stop-color:rgb(25.882354%,25.882354%,25.882354%);stop-opacity:1;"/>
</linearGradient>
<linearGradient id="linear2" gradientUnits="userSpaceOnUse" x1="960" y1="1695.118164" x2="960" y2="175.118134" gradientTransform="matrix(0.0330761,0,0,0.0330761,0,0)">
<stop offset="0" style="stop-color:rgb(74.117649%,74.117649%,74.117649%);stop-opacity:1;"/>
<stop offset="1" style="stop-color:rgb(87.843138%,87.843138%,87.843138%);stop-opacity:1;"/>
</linearGradient>
</defs>
<g id="surface1">
<path style=" stroke:none;fill-rule:nonzero;fill:url(#radial0);" d="M 36.382812 56.066406 L 41.675781 56.066406 L 41.675781 53.421875 L 36.382812 53.421875 Z M 36.382812 56.066406 "/>
<path style=" stroke:none;fill-rule:nonzero;fill:url(#radial1);" d="M 27.121094 56.066406 L 21.832031 56.066406 L 21.832031 58.714844 L 27.121094 58.714844 Z M 27.121094 56.066406 "/>
<path style=" stroke:none;fill-rule:nonzero;fill:url(#radial2);" d="M 27.121094 56.066406 L 21.832031 56.066406 L 21.832031 53.421875 L 27.121094 53.421875 Z M 27.121094 56.066406 "/>
<path style=" stroke:none;fill-rule:nonzero;fill:url(#radial3);" d="M 36.382812 56.066406 L 41.675781 56.066406 L 41.675781 58.714844 L 36.382812 58.714844 Z M 36.382812 56.066406 "/>
<path style=" stroke:none;fill-rule:nonzero;fill:url(#linear0);" d="M 27.121094 55.40625 L 36.382812 55.40625 L 36.382812 58.714844 L 27.121094 58.714844 Z M 27.121094 55.40625 "/>
<path style="fill-rule:nonzero;fill:url(#linear1);stroke-width:3;stroke-linecap:round;stroke-linejoin:miter;stroke:rgb(20%,20%,20%);stroke-opacity:1;stroke-miterlimit:4;" d="M 254.006994 -168.660675 C 365.058889 -168.660675 455.081542 -78.638022 455.081542 32.413873 C 455.081542 143.465768 365.058889 233.488421 254.006994 233.488421 C 142.955098 233.488421 52.901198 143.465768 52.901198 32.413873 C 52.901198 -78.638022 142.955098 -168.660675 254.006994 -168.660675 Z M 254.006994 -168.660675 " transform="matrix(0.125012,0,0,0.125012,0,26.877566)"/>
<path style=" stroke:none;fill-rule:nonzero;fill:rgb(0%,0%,0%);fill-opacity:0.196078;" d="M 31.753906 56.066406 C 17.828125 56.066406 6.613281 44.855469 6.613281 30.929688 C 6.613281 30.847656 6.617188 30.765625 6.617188 30.683594 C 6.746094 44.496094 17.910156 55.574219 31.753906 55.574219 C 45.597656 55.574219 56.757812 44.496094 56.890625 30.683594 C 56.890625 30.765625 56.890625 30.847656 56.890625 30.929688 C 56.890625 44.855469 45.679688 56.066406 31.753906 56.066406 Z M 31.753906 56.066406 "/>
<path style=" stroke:none;fill-rule:nonzero;fill:rgb(100%,100%,100%);fill-opacity:0.392157;" d="M 31.753906 5.792969 C 17.828125 5.792969 6.613281 17.003906 6.613281 30.929688 C 6.613281 31.011719 6.617188 31.09375 6.617188 31.175781 C 6.746094 17.363281 17.910156 6.285156 31.753906 6.285156 C 45.597656 6.285156 56.757812 17.363281 56.890625 31.175781 C 56.890625 31.09375 56.890625 31.011719 56.890625 30.929688 C 56.890625 17.003906 45.679688 5.792969 31.753906 5.792969 Z M 31.753906 5.792969 "/>
<path style=" stroke:none;fill-rule:nonzero;fill:rgb(12.941177%,12.941177%,12.941177%);fill-opacity:1;" d="M 31.753906 5.605469 C 17.726562 5.605469 6.425781 16.902344 6.425781 30.929688 C 6.425781 44.957031 17.726562 56.253906 31.753906 56.253906 C 45.78125 56.253906 57.078125 44.957031 57.078125 30.929688 C 57.078125 16.902344 45.78125 5.605469 31.753906 5.605469 Z M 31.753906 5.980469 C 45.578125 5.980469 56.703125 17.105469 56.703125 30.929688 C 56.703125 44.753906 45.578125 55.878906 31.753906 55.878906 C 17.925781 55.878906 6.800781 44.753906 6.800781 30.929688 C 6.800781 17.105469 17.925781 5.980469 31.753906 5.980469 Z M 31.753906 5.980469 "/>
<path style=" stroke:none;fill-rule:nonzero;fill:url(#linear2);" d="M 30.429688 15.054688 C 29.695312 15.054688 29.105469 15.644531 29.105469 16.375 L 29.105469 27.179688 L 19.113281 23.617188 C 18.421875 23.371094 17.667969 23.730469 17.421875 24.417969 L 16.535156 26.910156 C 16.289062 27.601562 16.644531 28.355469 17.335938 28.601562 L 27.5 32.222656 L 20.761719 40.804688 C 20.308594 41.382812 20.410156 42.210938 20.984375 42.664062 L 23.066406 44.296875 C 23.644531 44.75 24.472656 44.648438 24.925781 44.074219 L 31.804688 35.3125 L 38.679688 44.074219 C 39.132812 44.648438 39.960938 44.75 40.539062 44.296875 L 42.621094 42.664062 C 43.195312 42.210938 43.296875 41.382812 42.84375 40.804688 L 36.105469 32.222656 L 46.382812 28.5625 C 47.074219 28.316406 47.429688 27.5625 47.183594 26.871094 L 46.296875 24.378906 C 46.050781 23.6875 45.296875 23.332031 44.605469 23.574219 L 34.398438 27.214844 L 34.398438 16.375 C 34.398438 15.644531 33.808594 15.054688 33.074219 15.054688 Z M 30.429688 15.054688 "/>
<path style=" stroke:none;fill-rule:nonzero;fill:rgb(100%,100%,100%);fill-opacity:1;" d="M 30.429688 15.054688 C 29.695312 15.054688 29.105469 15.644531 29.105469 16.375 L 29.105469 17.367188 C 29.105469 16.636719 29.695312 16.046875 30.429688 16.046875 L 33.074219 16.046875 C 33.808594 16.046875 34.398438 16.636719 34.398438 17.367188 L 34.398438 16.375 C 34.398438 15.644531 33.808594 15.054688 33.074219 15.054688 Z M 45.0625 23.5 C 44.914062 23.496094 44.757812 23.523438 44.605469 23.574219 L 34.398438 27.214844 L 34.398438 28.207031 L 44.605469 24.570312 C 44.757812 24.515625 44.914062 24.488281 45.0625 24.492188 C 45.601562 24.496094 46.105469 24.832031 46.296875 25.371094 L 47.167969 27.808594 C 47.285156 27.519531 47.300781 27.1875 47.183594 26.871094 L 46.296875 24.378906 C 46.105469 23.839844 45.601562 23.503906 45.0625 23.5 Z M 18.65625 23.539062 C 18.117188 23.542969 17.613281 23.878906 17.421875 24.417969 L 16.535156 26.910156 C 16.421875 27.230469 16.4375 27.5625 16.554688 27.851562 L 17.421875 25.410156 C 17.613281 24.871094 18.117188 24.535156 18.65625 24.53125 C 18.808594 24.53125 18.960938 24.554688 19.113281 24.609375 L 29.105469 28.171875 L 29.105469 27.179688 L 19.113281 23.617188 C 18.960938 23.5625 18.808594 23.539062 18.65625 23.539062 Z M 36.917969 33.257812 L 36.105469 33.546875 L 36.714844 34.320312 L 36.917969 34.25 L 42.84375 41.796875 C 42.921875 41.898438 42.984375 42.003906 43.03125 42.117188 C 43.203125 41.695312 43.148438 41.191406 42.84375 40.804688 Z M 26.6875 33.257812 L 20.761719 40.804688 C 20.457031 41.191406 20.402344 41.695312 20.578125 42.117188 C 20.621094 42.003906 20.683594 41.898438 20.761719 41.796875 L 26.6875 34.25 L 26.890625 34.320312 L 27.5 33.546875 Z M 26.6875 33.257812 "/>
<path style=" stroke:none;fill-rule:nonzero;fill:rgb(0%,0%,0%);fill-opacity:0.235294;" d="M 47.097656 27.984375 C 46.949219 28.257812 46.703125 28.476562 46.382812 28.589844 L 36.105469 32.253906 L 36.917969 33.285156 L 46.382812 29.914062 C 47.074219 29.667969 47.429688 28.914062 47.183594 28.222656 Z M 16.621094 28.023438 L 16.535156 28.265625 C 16.289062 28.957031 16.644531 29.710938 17.335938 29.957031 L 26.6875 33.289062 L 27.5 32.253906 L 17.335938 28.632812 C 17.019531 28.519531 16.769531 28.296875 16.621094 28.023438 Z M 31.804688 35.34375 L 24.925781 44.101562 C 24.472656 44.679688 23.644531 44.777344 23.066406 44.328125 L 20.984375 42.691406 C 20.847656 42.585938 20.738281 42.457031 20.65625 42.3125 C 20.332031 42.875 20.460938 43.601562 20.984375 44.015625 L 23.066406 45.648438 C 23.644531 46.101562 24.472656 46.003906 24.925781 45.425781 L 31.804688 36.667969 L 38.679688 45.425781 C 39.132812 46.003906 39.960938 46.101562 40.539062 45.648438 L 42.621094 44.015625 C 43.144531 43.601562 43.273438 42.875 42.949219 42.3125 C 42.867188 42.457031 42.757812 42.585938 42.621094 42.691406 L 40.539062 44.328125 C 39.960938 44.777344 39.132812 44.679688 38.679688 44.101562 Z M 31.804688 35.34375 "/>
<path style="fill:none;stroke-width:11.338583;stroke-linecap:round;stroke-linejoin:round;stroke:rgb(12.941177%,12.941177%,12.941177%);stroke-opacity:1;stroke-miterlimit:4;" d="M 919.990934 455.153409 C 897.788328 455.153409 879.955385 472.986353 879.955385 495.070859 L 879.955385 821.732595 L 577.858233 714.02634 C 556.954717 706.586105 534.161617 717.45121 526.721382 738.236627 L 499.912917 813.583767 C 492.472682 834.487283 503.219688 857.280384 524.123205 864.720618 L 831.41671 974.198359 L 627.695997 1233.661784 C 613.996517 1251.14043 617.06709 1276.177411 634.427638 1289.876891 L 697.374386 1339.242258 C 714.853032 1352.941738 739.890013 1349.871165 753.589493 1332.510617 L 961.561769 1067.614639 L 1169.415947 1332.510617 C 1183.115427 1349.871165 1208.152407 1352.941738 1225.631054 1339.242258 L 1288.577802 1289.876891 C 1305.93835 1276.177411 1309.008923 1251.14043 1295.309443 1233.661784 L 1091.588729 974.198359 L 1402.307105 863.539629 C 1423.210622 856.099394 1433.957627 833.306294 1426.517393 812.402777 L 1399.708928 737.055638 C 1392.268693 716.152121 1369.475593 705.405115 1348.572076 712.727251 L 1039.979482 822.795486 L 1039.979482 495.070859 C 1039.979482 472.986353 1022.146538 455.153409 999.943933 455.153409 Z M 919.990934 455.153409 " transform="matrix(0.0330761,0,0,0.0330761,0,0)"/>
</g>
</svg>
